X: 16
T:The Randy Wife of Greenlaw
G:reel
S:Sarah Northcott
M:C|
L:1/8
Q:1/2=100
K:D
c|d2AG F2Dc|d2fd eBBc|d2AG F2DF|GBAG FDD    :|
c|d2df abaf|gefd eBBc|d2df abaf|geaf (3ddd dA|
  d2df abaf|gefd eBBc|dfce BdAF|GBAG FDD    |]

A children's song, originally from Newcastle, which has been widely used
as a Scottish dance tune:

